X: 774
T: Qiu shou
L: 1/16
M: 2/4
K: G
d2> d2 e2 g B [I:setbarnb 1]| 
A GA4g e | 
d e d B A B A D | 
G8 | 
A2 d2 c2 B A | 
G2 F E D2 d2 | 
G2 F E D E D A, | 
D8 |]

@@@ Tune index: 9648
